lib/svgs/team-talk.svg

<?xml version="1.0" encoding="UTF-8"?>
<svg width="16px" height="16px" viewBox="0 0 16 16" version="1.1" xmlns="http://www.w3.org/2000/svg" xmlns:xlink="http://www.w3.org/1999/xlink">
    <!-- Generator: sketchtool 51.3 (57544) - http://www.bohemiancoding.com/sketch -->
    <title>team/team-talk</title>
    <desc>Created with sketchtool.</desc>
    <defs></defs>
    <g id="Icons" stroke="none" stroke-width="1" fill="none" fill-rule="evenodd">
        <g id="Web" transform="translate(-99.000000, -2444.000000)" fill="#000000">
            <g id="team/team-talk" transform="translate(99.000000, 2444.000000)">
                <path d="M16,7.26676432 C16,3.60009766 12.4,0.600097656 8,0.600097656 C3.6,0.600097656 0,3.60009766 0,7.26676432 C0,10.933431 3.6,13.933431 8,13.933431 C8.66666667,13.933431 9.33333333,13.8667643 10,13.733431 L13.7333333,15.2000977 C13.8,15.2000977 13.8666667,15.2667643 14,15.2667643 C14.1333333,15.2667643 14.2666667,15.2000977 14.4,15.133431 C14.6,15.0000977 14.6666667,14.733431 14.6666667,14.533431 L14.3333333,11.4000977 C15.4,10.2000977 16,8.73343099 16,7.26676432 L16,7.26676432 M9.33333333,9.26676432 L4.66666667,9.26676432 L4.66666667,7.93343099 L9.33333333,7.93343099 L9.33333333,9.26676432 L9.33333333,9.26676432 M11.3333333,6.60009766 L4.66666667,6.60009766 L4.66666667,5.26676432 L11.3333333,5.26676432 L11.3333333,6.60009766 L11.3333333,6.60009766" id="Shape"></path>
            </g>
        </g>
    </g>
</svg>

<svg xmlns="http://www.w3.org/2000/svg" viewBox="0 0 16 16">
    <path d="M16 7.267C16 3.6 12.4.6 8 .6s-8 3-8 6.667c0 3.666 3.6 6.666 8 6.666.667 0 1.333-.066 2-.2l3.733 1.467c.067 0 .134.067.267.067a.948.948 0 0 0 .4-.134c.2-.133.267-.4.267-.6l-.334-3.133A6.28 6.28 0 0 0 16 7.267m-6.667 2H4.667V7.933h4.666v1.334m2-2.667H4.667V5.267h6.666V6.6"/>
</svg>
